svg/UnitedNationsOCHA-Humanitarian/other_clusters_rule_of_law_icon.svg

<svg xmlns="http://www.w3.org/2000/svg" viewBox="0 0 32 32" enable-background="new 0 0 32 32"><path fill="#407cca" d="m17.1 9.528v16.381h3.297v1.432h-8.791v-1.432h3.297v-16.381h-7.144v-1.431h7.144v-3.438h2.197v3.438h7.144v1.432h-7.144m-5.582 8.781c0 1.203-1.683 2.181-3.759 2.181-2.075-.0001-3.758-.978-3.758-2.181l3.758-8.781 3.759 8.781m-.623 0l-3.136-7.325-3.134 7.325h6.27m17.11 0c0 1.203-1.683 2.181-3.758 2.181-2.076 0-3.76-.978-3.76-2.181l3.76-8.781 3.758 8.781m-.623 0l-3.135-7.325-3.136 7.325h6.271"/></svg>

<?xml version="1.0" encoding="utf-8"?>
<!-- Generator: Adobe Illustrator 16.0.3, SVG Export Plug-In . SVG Version: 6.00 Build 0)  -->
<!DOCTYPE svg PUBLIC "-//W3C//DTD SVG 1.1//EN" "http://www.w3.org/Graphics/SVG/1.1/DTD/svg11.dtd">
<svg version="1.1" id="Layer_1" xmlns="http://www.w3.org/2000/svg" xmlns:xlink="http://www.w3.org/1999/xlink" x="0px" y="0px"
	 width="32px" height="32px" viewBox="0 0 32 32" enable-background="new 0 0 32 32" xml:space="preserve">
<path fill="#407CCA" d="M17.099,9.528v16.381h3.297v1.432h-8.791v-1.432h3.297V9.528H7.758V8.097h7.144V4.659h2.197v3.438h7.144
	v1.432H17.099z M11.517,18.31c0,1.203-1.683,2.181-3.759,2.181C5.683,20.49,4,19.513,4,18.31l3.758-8.781L11.517,18.31z
	 M10.894,18.31l-3.136-7.325L4.624,18.31H10.894z M28,18.31c0,1.203-1.683,2.181-3.758,2.181c-2.076,0-3.76-0.978-3.76-2.181
	l3.76-8.781L28,18.31z M27.377,18.31l-3.135-7.325l-3.136,7.325H27.377z"/>
</svg>
